boxicons/svg/regular/bx-fullscreen.svg

<svg xmlns="http://www.w3.org/2000/svg" width="24" height="24" viewBox="0 0 24 24"><path d="M5 5h5V3H3v7h2zm5 14H5v-5H3v7h7zm11-5h-2v5h-5v2h7zm-2-4h2V3h-7v2h5z"/></svg>

<svg xmlns="http://www.w3.org/2000/svg" width="24" height="24" viewBox="0 0 24 24"><path d="M5 5L10 5 10 3 3 3 3 10 5 10zM10 19L5 19 5 14 3 14 3 21 10 21zM21 14L19 14 19 19 14 19 14 21 21 21zM19 10L21 10 21 3 14 3 14 5 19 5z"/></svg>
